X:130
T: Templecross
C: R.L.O'Mealy
S: Treoir
Z: B.Black
M: 4/4
L: 1/8
R: hornpipe
K: D
A>F | FGAF D3 F | defd (3Bcd A>G | FAdf gfed |
(3Bcd ef e2 AG | FGAF D2 (3AAA | defd (3Bcd A>G |
FAdf gfed |1 dfec d2 :|2 d2 (3fgf d2 ||
(3Abc|d2 fd ec (3ABc|d2 fd ecAG|FADF gfed|\
(3Bcd ef e2 (3ABc |
d2 fd ec (3ABc |d2 fd ecAG |FADF gfed|dfec d2 (3ABc |
d2 fd ec (3ABc |d2 fd ecAG |FADF gfed|(3Bcd ef e2 A>G |
FGAF D3 F |defd (3Bcd A>G |FAdf gfed |dfec d2 ||
